code/svg/logo.svg

<svg width="147" height="30" viewBox="0 0 147 30" fill="none" xmlns="http://www.w3.org/2000/svg">
<g clip-path="url(#clip0_104_2)">
<path fill-rule="evenodd" clip-rule="evenodd" d="M62.0652 18.1241C62.3748 17.3292 62.5302 16.4068 62.5302 15.3583C62.5302 14.3093 62.3723 13.3871 62.0561 12.5919C61.7402 11.7963 61.3069 11.1274 60.757 10.5854C60.2069 10.0433 59.5632 9.63696 58.826 9.36581C58.0884 9.09441 57.3043 8.95871 56.4736 8.95871C55.6659 8.95871 54.8961 9.09441 54.165 9.36581C53.4332 9.63696 52.7893 10.0433 52.2338 10.5854C51.6778 11.1274 51.2357 11.7963 50.9082 12.5919C50.5805 13.3871 50.4165 14.3093 50.4165 15.3583C50.4165 16.4068 50.5748 17.3292 50.8908 18.1241C51.2069 18.9198 51.6395 19.5857 52.1899 20.1215C52.7397 20.6582 53.3837 21.0615 54.1211 21.3324C54.8585 21.6038 55.6424 21.7393 56.4736 21.7393C57.3276 21.7393 58.1267 21.6038 58.8697 21.3324C59.6128 21.0615 60.2538 20.6582 60.7921 20.1215C61.3302 19.5857 61.7547 18.9198 62.0652 18.1241ZM53.4625 16.9842C53.3162 16.501 53.2432 15.9589 53.2432 15.3583C53.2432 14.769 53.3162 14.2299 53.4625 13.7405C53.6088 13.2516 53.8196 12.8334 54.0948 12.4859C54.3693 12.1381 54.7061 11.867 55.1043 11.6724C55.5019 11.4782 55.9583 11.381 56.4736 11.381C56.9766 11.381 57.4302 11.4752 57.8343 11.6638C58.2376 11.8519 58.5774 12.1203 58.8521 12.4678C59.127 12.8159 59.3381 13.2338 59.4844 13.7227C59.6307 14.2119 59.7039 14.7569 59.7039 15.3583C59.7039 15.9589 59.6307 16.501 59.4844 16.9842C59.3381 17.4676 59.127 17.8829 58.8521 18.2304C58.5774 18.5784 58.2376 18.8461 57.8343 19.0345C57.4302 19.2236 56.9766 19.318 56.4736 19.318C55.9583 19.318 55.5019 19.2236 55.1043 19.0345C54.7061 18.8461 54.3693 18.5784 54.0948 18.2304C53.8196 17.8829 53.6088 17.4676 53.4625 16.9842Z" fill="black"/>
<path d="M69.4166 19.3884C69.8028 19.3884 70.1216 19.3563 70.3733 19.291C70.6249 19.2265 70.8269 19.1383 70.9789 19.0256C71.1308 18.9141 71.2364 18.7816 71.2951 18.6284C71.3537 18.4754 71.3829 18.3043 71.3829 18.1157C71.3829 17.7153 71.1954 17.3819 70.821 17.1171C70.4464 16.8517 69.8028 16.5662 68.89 16.2592C68.4919 16.1183 68.0939 15.9559 67.696 15.7735C67.2981 15.5911 66.9411 15.3612 66.6252 15.0841C66.3095 14.8073 66.0518 14.4714 65.8529 14.0762C65.6538 13.6817 65.5544 13.2017 65.5544 12.6359C65.5544 12.0701 65.6597 11.5605 65.8703 11.1069C66.0812 10.6531 66.3795 10.2675 66.7659 9.94888C67.152 9.63053 67.6199 9.38657 68.17 9.21528C68.7202 9.04473 69.3403 8.95871 70.0311 8.95871C70.8502 8.95871 71.5585 9.04769 72.1555 9.22417C72.752 9.4009 73.2437 9.59567 73.6299 9.80775L72.8401 11.9819C72.5004 11.8052 72.1228 11.6489 71.7077 11.5132C71.2921 11.378 70.7918 11.3098 70.2068 11.3098C69.5511 11.3098 69.08 11.4018 68.7933 11.5842C68.5066 11.7668 68.363 12.0469 68.363 12.4236C68.363 12.6478 68.416 12.8366 68.5213 12.9894C68.6264 13.1426 68.7759 13.281 68.9688 13.4049C69.162 13.5284 69.3844 13.6407 69.6363 13.7405C69.8874 13.8409 70.1656 13.9437 70.4702 14.0497C71.1019 14.2858 71.652 14.5184 72.1204 14.7482C72.5883 14.9781 72.9776 15.2463 73.2879 15.5525C73.5977 15.8588 73.8289 16.2184 73.9814 16.631C74.1331 17.0437 74.2094 17.5443 74.2094 18.133C74.2094 19.2762 73.8113 20.1631 73.0154 20.7933C72.2195 21.4241 71.0199 21.7395 69.4166 21.7395C68.8783 21.7395 68.3924 21.7069 67.9594 21.6421C67.5264 21.5769 67.1432 21.4975 66.8096 21.4034C66.4762 21.3092 66.1892 21.2091 65.9491 21.1031C65.7093 20.9968 65.5075 20.8969 65.3435 20.8022L66.1163 18.6106C66.4786 18.8113 66.9264 18.9907 67.4594 19.1494C67.9916 19.3088 68.6443 19.3884 69.4166 19.3884Z" fill="black"/>
<path d="M86.2752 9.24216V11.5933H82.6059V21.4918H79.8673V11.5933H76.1978V9.24216H86.2752Z" fill="black"/>
<path d="M89.3171 21.4921H92.0559V9.24219H89.3171V21.4921Z" fill="black"/>
<path d="M104.315 21.4918C103.531 20.0896 102.683 18.7052 101.77 17.3378C100.856 15.9707 99.8849 14.6805 98.8553 13.4666V21.4918H96.1516V9.24216H98.3811C98.767 9.63071 99.1944 10.108 99.6627 10.6738C100.131 11.2396 100.607 11.8437 101.094 12.4858C101.579 13.128 102.062 13.7938 102.542 14.483C103.022 15.1723 103.472 15.835 103.894 16.4715V9.24216H106.615V21.4918H104.315Z" fill="black"/>
<path d="M116.644 11.3634C115.369 11.3634 114.447 11.7198 113.879 12.4327C113.311 13.1458 113.028 14.1206 113.028 15.3584C113.028 15.9588 113.098 16.5043 113.238 16.9932C113.379 17.4819 113.59 17.9031 113.87 18.2568C114.151 18.6105 114.502 18.8846 114.924 19.0791C115.345 19.2734 115.836 19.3706 116.398 19.3706C116.702 19.3706 116.963 19.3646 117.18 19.353C117.396 19.3414 117.586 19.3179 117.75 19.2823V15.0225H120.489V21.0854C120.161 21.2152 119.635 21.3534 118.909 21.5004C118.183 21.6475 117.288 21.7217 116.223 21.7217C115.31 21.7217 114.482 21.58 113.739 21.2975C112.995 21.0143 112.36 20.6022 111.834 20.0599C111.308 19.5181 110.901 18.852 110.614 18.0625C110.327 17.2735 110.184 16.3719 110.184 15.3584C110.184 14.3329 110.342 13.4256 110.658 12.6358C110.974 11.8466 111.406 11.1773 111.957 10.6295C112.507 10.0816 113.153 9.6663 113.897 9.38354C114.64 9.10053 115.433 8.95865 116.275 8.95865C116.849 8.95865 117.367 8.99745 117.829 9.07383C118.291 9.1507 118.689 9.23894 119.023 9.33929C119.356 9.43915 119.632 9.54222 119.848 9.64851C120.065 9.75455 120.219 9.83735 120.313 9.89618L119.523 12.1054C119.149 11.9052 118.718 11.7317 118.233 11.5841C117.747 11.4368 117.218 11.3634 116.644 11.3634Z" fill="black"/>
<path d="M124.321 21.4918V9.24216H132.537V11.5577H127.06V13.9614H131.923V16.2243H127.06V19.1763H132.941V21.4918H124.321Z" fill="black"/>
<path fill-rule="evenodd" clip-rule="evenodd" d="M144.006 10.0814C143.035 9.42719 141.636 9.10043 139.81 9.10043C139.307 9.10043 138.736 9.12391 138.099 9.17137C137.461 9.21808 136.843 9.30113 136.247 9.41829V21.4917H138.985V17.0191H140.337C140.572 17.3024 140.807 17.6175 141.042 17.9655C141.277 18.313 141.516 18.6808 141.756 19.0699C141.997 19.4589 142.231 19.8598 142.461 20.2721C142.689 20.6847 142.916 21.091 143.139 21.4917H146.2C145.99 21.0441 145.762 20.5875 145.516 20.1216C145.27 19.6564 145.016 19.2088 144.752 18.7787C144.489 18.3486 144.222 17.9361 143.953 17.5411C143.684 17.1464 143.427 16.7959 143.181 16.4892C143.919 16.1832 144.483 15.7615 144.875 15.2256C145.268 14.6895 145.463 13.9907 145.463 13.1308C145.463 11.7518 144.977 10.7355 144.006 10.0814ZM139.433 11.4691C139.591 11.4575 139.769 11.4515 139.968 11.4515C140.846 11.4515 141.51 11.5783 141.961 11.8312C142.412 12.0853 142.637 12.5119 142.637 13.113C142.637 13.7379 142.415 14.1801 141.97 14.4389C141.525 14.6984 140.788 14.8274 139.758 14.8274H138.985V11.5044C139.126 11.4931 139.275 11.4812 139.433 11.4691Z" fill="black"/>
<path d="M44.0025 9.34125H46.7577V21.5478H44.0025V16.3693H39.3754V21.5478H36.6201V9.34125H39.3754V14.0087H44.0025V9.34125Z" fill="black"/>
<path fill-rule="evenodd" clip-rule="evenodd" d="M17.8175 0.798004V9.52741L24.87 13.652V4.39283L17.8175 0.798004ZM0.00024489 0.798433V14.4969H22.937L15.9584 10.6612L6.8675 10.6568V4.48498L0.00024489 0.798433ZM17.8175 26.2703V20.1517L8.65652 20.1453C8.66507 20.1861 1.56204 16.2484 1.56204 16.2484L24.8699 16.3585V30.0567L17.8175 26.2703ZM0.00024433 17.3187L0 26.2703L6.8675 29.8649V21.3457L0.00024433 17.3187Z" fill="black"/>
</g>
<defs>
<clipPath id="clip0_104_2">
<rect width="147" height="30" fill="black"/>
</clipPath>
</defs>
</svg>

<svg xmlns="http://www.w3.org/2000/svg" width="147" height="30" fill="none"><g fill="#000" clip-path="url(#a)"><path fill-rule="evenodd" d="M62.065 18.124q.465-1.193.465-2.766t-.474-2.766-1.299-2.007a5.35 5.35 0 0 0-1.931-1.22 6.8 6.8 0 0 0-2.352-.406 6.6 6.6 0 0 0-2.309.407 5.4 5.4 0 0 0-1.931 1.22q-.834.812-1.326 2.006t-.492 2.766.475 2.766q.474 1.194 1.299 1.998.825.805 1.931 1.21a6.8 6.8 0 0 0 2.353.407q1.281 0 2.396-.407a5.2 5.2 0 0 0 1.922-1.21q.807-.804 1.273-1.998m-8.602-1.14a5.6 5.6 0 0 1-.22-1.626q0-.884.22-1.617a3.7 3.7 0 0 1 .632-1.255 2.9 2.9 0 0 1 1.01-.814q.595-.291 1.369-.291.754 0 1.36.283.606.282 1.018.804t.632 1.255.22 1.635q0 .9-.22 1.626a3.7 3.7 0 0 1-.632 1.246 2.8 2.8 0 0 1-1.018.805q-.606.283-1.36.283-.774 0-1.37-.284a2.8 2.8 0 0 1-1.01-.804 3.7 3.7 0 0 1-.632-1.246" clip-rule="evenodd"/><path d="M69.417 19.388q.58 0 .956-.097.378-.096.606-.265a.9.9 0 0 0 .316-.398q.088-.23.088-.512 0-.6-.562-.999-.562-.397-1.931-.858-.597-.21-1.194-.486a4.4 4.4 0 0 1-1.07-.689 3.3 3.3 0 0 1-.773-1.008q-.3-.591-.299-1.44 0-.848.316-1.53.317-.679.896-1.157a4.1 4.1 0 0 1 1.404-.734q.825-.255 1.861-.256 1.23 0 2.124.265.896.266 1.475.584l-.79 2.174a7.5 7.5 0 0 0-1.132-.469q-.624-.203-1.501-.203-.984 0-1.414.274t-.43.84q0 .337.158.565.158.23.448.416t.667.336.834.309q.948.354 1.65.698.703.345 1.168.805.464.459.693 1.078t.228 1.502q0 1.715-1.194 2.66-1.194.947-3.598.947a9.5 9.5 0 0 1-2.607-.336 7 7 0 0 1-.86-.3 7 7 0 0 1-.606-.302l.772-2.191q.544.3 1.343.538.799.24 1.958.24M86.275 9.242v2.351h-3.67v9.899h-2.738v-9.899h-3.67v-2.35zm3.042 12.25h2.739V9.242h-2.739zm14.998 0a62 62 0 0 0-2.545-4.154 43 43 0 0 0-2.915-3.871v8.025h-2.703V9.242h2.23q.578.583 1.28 1.432t1.432 1.812 1.448 1.997 1.352 1.988V9.243h2.721v12.25zm12.329-10.129q-1.913 0-2.765 1.07t-.851 2.925q0 .9.21 1.635.212.733.632 1.264.421.53 1.054.822.631.292 1.474.292.456 0 .782-.018a3.6 3.6 0 0 0 .57-.07v-4.26h2.739v6.062q-.492.195-1.58.415-1.089.222-2.686.222-1.37 0-2.484-.425a5.2 5.2 0 0 1-1.905-1.237q-.79-.813-1.22-1.997t-.43-2.705q0-1.537.474-2.722.473-1.185 1.299-2.006a5.5 5.5 0 0 1 1.94-1.246 6.6 6.6 0 0 1 2.378-.425 9.6 9.6 0 0 1 2.748.38 5.5 5.5 0 0 1 1.29.557l-.79 2.21a7 7 0 0 0-1.29-.522 5.5 5.5 0 0 0-1.589-.22m7.677 10.128V9.242h8.216v2.316h-5.477v2.403h4.863v2.263h-4.863v2.952h5.881v2.316z"/><path fill-rule="evenodd" d="M144.006 10.081q-1.457-.98-4.196-.98-.755 0-1.711.07t-1.852.247v12.074h2.738v-4.473h1.352q.352.425.705.947a31 31 0 0 1 1.419 2.306l.678 1.22h3.061q-.315-.672-.684-1.37-.368-.699-.764-1.343a30 30 0 0 0-.799-1.238 17 17 0 0 0-.772-1.052q1.107-.46 1.694-1.263.589-.805.588-2.095 0-2.069-1.457-3.05m-4.573 1.388q.237-.017.535-.018 1.317 0 1.993.38t.676 1.282q0 .938-.667 1.326t-2.212.388h-.773v-3.323z" clip-rule="evenodd"/><path d="M44.003 9.341h2.755v12.207h-2.756v-5.179h-4.627v5.179H36.62V9.34h2.755v4.668h4.627z"/><path fill-rule="evenodd" d="M17.818.798v8.73l7.052 4.124v-9.26zM0 .798v13.699h22.937l-6.979-3.836-9.09-.004V4.485zM17.818 26.27v-6.118l-9.161-.007c.008.041-7.095-3.897-7.095-3.897l23.308.11v13.699zM0 17.32v8.951l6.868 3.595v-8.52z" clip-rule="evenodd"/></g><defs><clipPath id="a"><path fill="#000" d="M0 0h147v30H0z"/></clipPath></defs></svg>
